X: 49
T:Bass(to TBe.047). TBe.049
M:C|
L:1/4
Q:80
S:Thomas Bennet MS,1718, VWML
R:rigadoon
O:England
N:Thi has not been transposed into treble clef - ignore the sign and
N:read it as bas
H:Before 1718
Z:vmp.C. Graebe..
K:G major
"READ AS BASS CLEF" DedB | e2E2 | A2 ef | gabe ||!
e/d/e/f/ ga | b2B2 | DEFB | GEA2 | EABE ||
